src/actions/16/view-form-action.svg

<svg xmlns="http://www.w3.org/2000/svg" viewBox="0 0 16 16">
    <path d="M2 2v12h7v-1H3V5h10v2h1V2H2zm6.688.5 1.656 1.094L12 2.5l.688.438-2 1.312-.344.25L10 4.25 8 2.938l.688-.438zM4 6v6h3V6H4zm4 1v1h1V7H8zm4 0-3 4.082L11 11v3l3-4h-2V7z" style="fill:currentColor;fill-opacity:1;stroke:none;color:#050505;opacity:.7"/>
</svg>

<svg xmlns="http://www.w3.org/2000/svg" viewBox="0 0 16 16">
  <defs id="defs3051">
    <style type="text/css" id="current-color-scheme">
      .ColorScheme-Text {
        color:#363636;
      }
      </style>
  </defs>
 <path style="fill:currentColor;fill-opacity:1;stroke:none" 
       d="M 2 2 L 2 5 L 2 14 L 3 14 L 8 14 L 9 14 L 9 13 L 8 13 L 3 13 L 3 5 L 13 5 L 13 7 L 14 7 L 14 2 L 3 2 L 2 2 z M 8.6875 2.5 L 10.34375 3.59375 L 12 2.5 L 12.6875 2.9375 L 10.6875 4.25 L 10.34375 4.5 L 10 4.25 L 8 2.9375 L 8.6875 2.5 z M 4 6 L 4 8 L 4 10 L 4 12 L 6 12 L 7 12 L 7 11 L 7 10 L 7 8 L 7 7 L 7 6 L 6 6 L 4 6 z M 8 7 L 8 8 L 9 8 L 9 7 L 8 7 z M 12 7 L 9 11.082031 L 11 11 L 11 14 L 14 10 L 12 10 L 12 7 z "
     class="ColorScheme-Text"
     />
</svg>
